korla/apps/scalable/kuiviewer.svg

<svg xmlns="http://www.w3.org/2000/svg" width="48" height="48" version="1.1">
 <path style="opacity:0.2" d="m 6.6584241,35.632919 c 0.2128513,0.729905 0.5082365,1.433743 0.8818113,2.094134 L 6.4759809,39.06956 c -0.347512,0.438812 -0.3084166,1.064446 0.082536,1.459811 l 1.8331249,1.833454 c 0.3952947,0.395367 1.0208162,0.43008 1.4595503,0.0825 l 1.3335769,-1.055752 c 0.686336,0.395409 1.416111,0.703838 2.176293,0.921072 l 0.19982,1.716148 C 13.626043,44.582911 14.095181,45 14.6512,45 h 2.593307 c 0.556018,0 1.025159,-0.417133 1.090319,-0.973208 l 0.191131,-1.655322 c 0.816652,-0.21289 1.598554,-0.530052 2.332673,-0.942796 l 1.290137,1.020999 c 0.438734,0.347574 1.064256,0.308472 1.45955,-0.08254 l 1.833126,-1.833455 c 0.395294,-0.395366 0.430045,-1.020999 0.08254,-1.459812 l -1.003446,-1.272995 c 0.417014,-0.721259 0.742807,-1.490225 0.960002,-2.293991 l 1.546427,-0.178131 C 27.583029,35.263579 28,34.794353 28,34.238233 v -2.593772 c 0,-0.556119 -0.417014,-1.025345 -0.973034,-1.090514 L 25.502253,30.375821 C 25.293701,29.580743 24.980985,28.820424 24.581389,28.107898 L 25.519671,26.9218 c 0.347512,-0.438813 0.308417,-1.064446 -0.08253,-1.459812 L 23.608359,23.632874 C 23.21306,23.237508 22.587539,23.20275 22.148807,23.550329 L 20.997672,24.46271 C 20.250524,24.023895 19.451204,23.689356 18.612875,23.463433 L 18.439119,21.973208 C 18.373959,21.41709 17.90482,21 17.348801,21 h -2.593308 c -0.556019,0 -1.02516,0.41709 -1.090318,0.973208 l -0.173755,1.490225 c -0.860092,0.230269 -1.681088,0.577842 -2.445615,1.034034 L 9.8512327,23.550323 c -0.438733,-0.347575 -1.0642545,-0.308472 -1.4595489,0.08255 l -1.833125,1.833456 c -0.3952957,0.395365 -0.4300467,1.020998 -0.082537,1.459811 l 0.9990973,1.264302 C 7.0754802,28.91166 6.7714066,29.680669 6.5715879,30.480088 L 4.9730333,30.662565 C 4.4170143,30.727735 4,31.19696 4,31.753079 v 2.593774 c 0,0.556118 0.4170143,1.025343 0.9730333,1.090514 l 1.6853889,0.195554 z"/>
 <path style="opacity:0.2" d="M 38.996469,5.1327133 36.923619,4.2428608 C 36.285223,3.9683638 35.542302,4.2154735 35.198512,4.8150223 L 34.545748,5.9409265 C 33.662858,5.8029323 32.766115,5.7887821 31.876474,5.8921517 L 31.238681,4.7171529 C 30.91076,4.1095856 30.171652,3.8427034 29.527275,4.0942486 l -2.097772,0.8328363 c -0.642687,0.256726 -0.99779,0.9508699 -0.817044,1.6199697 L 26.958115,7.833052 C 26.220777,8.3804817 25.564,9.0232503 25.007098,9.7498257 l -1.3089,-0.3911462 C 23.031551,9.16109 22.324624,9.4885031 22.049109,10.12442 l -0.890196,2.075121 c -0.27562,0.635947 -0.02755,1.375891 0.574334,1.718395 l 1.261705,0.724439 c -0.104602,0.84073 -0.103709,1.689553 0.0031,2.529075 l -1.278055,0.687899 c -0.609971,0.326627 -0.877907,1.062823 -0.625384,1.70461 l 0.836131,2.089509 c 0.257755,0.640149 0.954629,0.993859 1.626377,0.813826 l 1.486526,-0.397613 c 0.480131,0.618594 1.032831,1.175442 1.646145,1.66829 l -0.446115,1.485178 c -0.198402,0.663916 0.130323,1.368112 0.768716,1.642609 l 2.07285,0.889852 c 0.6385,0.274467 1.381317,0.02739 1.725213,-0.57219 l 0.772775,-1.333087 c 0.807364,0.115213 1.625941,0.135869 2.435353,0.05102 l 0.746568,1.38148 c 0.327923,0.607567 1.067029,0.87445 1.711301,0.622936 l 2.097772,-0.832835 c 0.642685,-0.256727 0.997806,-0.950818 0.817045,-1.619969 L 39.00006,23.99832 c 0.701724,-0.513882 1.331304,-1.11425 1.876317,-1.785895 l 1.42761,0.423682 c 0.666543,0.197621 1.373471,-0.129793 1.649091,-0.765739 l 0.893372,-2.064684 c 0.275515,-0.635917 0.02744,-1.37586 -0.574438,-1.718365 l -1.266943,-0.722856 c 0.125559,-0.847059 0.144107,-1.707393 0.0461,-2.555385 l 1.228833,-0.66164 c 0.60997,-0.326629 0.877906,-1.062825 0.625382,-1.70461 L 44.069285,10.353315 C 43.811508,9.7131675 43.114634,9.359457 42.442888,9.5394905 L 41.115113,9.8948118 C 40.610737,9.2151643 40.024829,8.6057749 39.365753,8.0753471 L 39.756316,6.7835878 C 39.96528,6.1165955 39.63497,5.4071826 38.99647,5.1327157 Z"/>
 <path style="fill:#a6a6a6" d="m 6.6584241,34.632919 c 0.2128513,0.729905 0.5082365,1.433743 0.8818113,2.094134 L 6.4759809,38.06956 c -0.347512,0.438812 -0.3084166,1.064446 0.082536,1.459811 l 1.8331249,1.833454 c 0.3952947,0.395367 1.0208162,0.43008 1.4595503,0.0825 l 1.3335769,-1.055752 c 0.686336,0.395409 1.416111,0.703838 2.176293,0.921072 l 0.19982,1.716148 C 13.626043,43.582911 14.095181,44 14.6512,44 h 2.593307 c 0.556018,0 1.025159,-0.417133 1.090319,-0.973208 l 0.191131,-1.655322 c 0.816652,-0.21289 1.598554,-0.530052 2.332673,-0.942796 l 1.290137,1.020999 c 0.438734,0.347574 1.064256,0.308472 1.45955,-0.08254 l 1.833126,-1.833455 c 0.395294,-0.395366 0.430045,-1.020999 0.08254,-1.459812 l -1.003446,-1.272995 c 0.417014,-0.721259 0.742807,-1.490225 0.960002,-2.293991 l 1.546427,-0.178131 C 27.583029,34.263579 28,33.794353 28,33.238233 v -2.593772 c 0,-0.556119 -0.417014,-1.025345 -0.973034,-1.090514 L 25.502253,29.375821 C 25.293701,28.580743 24.980985,27.820424 24.581389,27.107898 L 25.519671,25.9218 c 0.347512,-0.438813 0.308417,-1.064446 -0.08253,-1.459812 L 23.608359,22.632874 C 23.21306,22.237508 22.587539,22.20275 22.148807,22.550329 L 20.997672,23.46271 C 20.250524,23.023895 19.451204,22.689356 18.612875,22.463433 L 18.439119,20.973208 C 18.373959,20.41709 17.90482,20 17.348801,20 h -2.593308 c -0.556019,0 -1.02516,0.41709 -1.090318,0.973208 l -0.173755,1.490225 c -0.860092,0.230269 -1.681088,0.577842 -2.445615,1.034034 L 9.8512327,22.550323 c -0.438733,-0.347575 -1.0642545,-0.308472 -1.4595489,0.08255 l -1.833125,1.833456 c -0.3952957,0.395365 -0.4300467,1.020998 -0.082537,1.459811 l 0.9990973,1.264302 C 7.0754802,27.91166 6.7714066,28.680669 6.5715879,29.480088 L 4.9730333,29.662565 C 4.4170143,29.727735 4,30.19696 4,30.753079 v 2.593774 c 0,0.556118 0.4170143,1.025343 0.9730333,1.090514 l 1.6853889,0.195554 z"/>
 <path style="fill:#ffd52b" d="M 38.996469,4.1327133 36.923619,3.2428608 C 36.285223,2.9683638 35.542302,3.2154735 35.198512,3.8150223 L 34.545748,4.9409265 C 33.662858,4.8029323 32.766115,4.7887821 31.876474,4.8921517 L 31.238681,3.7171529 C 30.91076,3.1095856 30.171652,2.8427034 29.527275,3.0942486 l -2.097772,0.8328363 c -0.642687,0.256726 -0.99779,0.9508699 -0.817044,1.6199697 L 26.958115,6.833052 C 26.220777,7.3804817 25.564,8.0232503 25.007098,8.7498257 l -1.3089,-0.3911462 C 23.031551,8.16109 22.324624,8.4885031 22.049109,9.1244195 l -0.890196,2.0751215 c -0.27562,0.635947 -0.02755,1.375891 0.574334,1.718395 l 1.261705,0.724439 c -0.104602,0.84073 -0.103709,1.689553 0.0031,2.529075 l -1.278055,0.687899 c -0.609971,0.326627 -0.877907,1.062823 -0.625384,1.70461 l 0.836131,2.089509 c 0.257755,0.640149 0.954629,0.993859 1.626377,0.813826 l 1.486526,-0.397613 c 0.480131,0.618594 1.032831,1.175442 1.646145,1.66829 l -0.446115,1.485178 c -0.198402,0.663916 0.130323,1.368112 0.768716,1.642609 l 2.07285,0.889852 c 0.6385,0.274467 1.381317,0.02739 1.725213,-0.57219 l 0.772775,-1.333087 c 0.807364,0.115213 1.625941,0.135869 2.435353,0.05102 l 0.746568,1.38148 c 0.327923,0.607567 1.067029,0.87445 1.711301,0.622936 l 2.097772,-0.832835 c 0.642685,-0.256727 0.997806,-0.950818 0.817045,-1.619969 L 39.00006,22.99832 c 0.701724,-0.513882 1.331304,-1.11425 1.876317,-1.785895 l 1.42761,0.423682 c 0.666543,0.197621 1.373471,-0.129793 1.649091,-0.765739 l 0.893372,-2.064684 c 0.275515,-0.635917 0.02744,-1.37586 -0.574438,-1.718365 l -1.266943,-0.722856 c 0.125559,-0.847059 0.144107,-1.707393 0.0461,-2.555385 l 1.228833,-0.66164 c 0.60997,-0.326629 0.877906,-1.062825 0.625382,-1.70461 L 44.069285,9.3533149 C 43.811508,8.7131675 43.114634,8.359457 42.442888,8.5394905 L 41.115113,8.8948118 C 40.610737,8.2151643 40.024829,7.6057749 39.365753,7.0753471 L 39.756316,5.7835878 C 39.96528,5.1165955 39.63497,4.4071826 38.99647,4.1327157 Z"/>
 <circle style="opacity:0.2" cx="16" cy="33" r="4"/>
 <circle style="fill:#ffffff" cx="16" cy="32" r="4"/>
 <circle style="opacity:0.2" cx="33" cy="16" r="4"/>
 <circle style="fill:#ffffff" cx="33" cy="15" r="4"/>
 <path style="fill:#ffffff;opacity:0.2" d="M 14.755859 20 C 14.19984 20 13.731174 20.416538 13.666016 20.972656 L 13.492188 22.462891 C 12.632096 22.69316 11.809449 23.041855 11.044922 23.498047 L 9.8515625 22.550781 C 9.4128295 22.203206 8.7878725 22.241791 8.3925781 22.632812 L 6.5585938 24.466797 C 6.2162324 24.809218 6.1623564 25.317467 6.375 25.734375 C 6.4251733 25.639543 6.4790315 25.546373 6.5585938 25.466797 L 8.3925781 23.632812 C 8.7878725 23.241791 9.4128295 23.203206 9.8515625 23.550781 L 11.044922 24.498047 C 11.809449 24.041855 12.632096 23.69316 13.492188 23.462891 L 13.666016 21.972656 C 13.731174 21.416538 14.19984 21 14.755859 21 L 17.349609 21 C 17.905628 21 18.374293 21.416538 18.439453 21.972656 L 18.613281 23.462891 C 19.45161 23.688814 20.250899 24.024076 20.998047 24.462891 L 22.148438 23.550781 C 22.58717 23.203202 23.212123 23.237446 23.607422 23.632812 L 25.4375 25.462891 C 25.516403 25.542685 25.571141 25.635344 25.621094 25.730469 C 25.832934 25.313561 25.776095 24.805313 25.4375 24.462891 L 23.607422 22.632812 C 23.212123 22.237446 22.58717 22.203202 22.148438 22.550781 L 20.998047 23.462891 C 20.250899 23.024076 19.45161 22.688814 18.613281 22.462891 L 18.439453 20.972656 C 18.374293 20.416538 17.905628 20 17.349609 20 L 14.755859 20 z M 24.880859 27.728516 L 24.582031 28.107422 C 24.981627 28.819948 25.293401 29.579922 25.501953 30.375 L 27.027344 30.554688 C 27.583364 30.619856 28 31.088412 28 31.644531 L 28 30.644531 C 28 30.088412 27.583364 29.619856 27.027344 29.554688 L 25.501953 29.375 C 25.352084 28.803645 25.131896 28.259134 24.880859 27.728516 z M 7.1796875 27.818359 C 6.9314612 28.355233 6.7159332 28.905695 6.5722656 29.480469 L 4.9726562 29.662109 C 4.4166372 29.727279 4 30.197787 4 30.753906 L 4 31.753906 C 4 31.197787 4.4166372 30.727279 4.9726562 30.662109 L 6.5722656 30.480469 C 6.7720843 29.68105 7.0749705 28.912624 7.4746094 28.191406 L 7.1796875 27.818359 z M 7.2382812 37.109375 L 6.4765625 38.070312 C 6.1992537 38.420477 6.1776009 38.883613 6.375 39.259766 C 6.407601 39.195856 6.4303976 39.128606 6.4765625 39.070312 L 7.5410156 37.726562 C 7.4281972 37.527126 7.3367179 37.316257 7.2382812 37.109375 z M 24.826172 37.1875 C 24.725684 37.392713 24.636119 37.602511 24.521484 37.800781 L 25.523438 39.074219 C 25.569972 39.13298 25.592123 39.201165 25.625 39.265625 C 25.824106 38.889295 25.800999 38.424711 25.523438 38.074219 L 24.826172 37.1875 z"/>
 <path style="fill:#ffffff;opacity:0.2" d="M 30.019531 3 C 29.854501 3.0008601 29.688438 3.0308637 29.527344 3.09375 L 27.429688 3.9277344 C 26.787001 4.1844604 26.432535 4.8777752 26.613281 5.546875 L 26.666016 5.7402344 C 26.795437 5.3832149 27.053692 5.0779286 27.429688 4.9277344 L 29.527344 4.09375 C 30.171721 3.8422048 30.91036 4.1092296 31.238281 4.7167969 L 31.876953 5.8925781 C 32.766594 5.7892085 33.662032 5.8034121 34.544922 5.9414062 L 35.199219 4.8144531 C 35.543009 4.2149043 36.285432 3.9676905 36.923828 4.2421875 L 38.996094 5.1328125 C 39.347704 5.2839563 39.592647 5.571029 39.71875 5.90625 L 39.755859 5.7832031 C 39.964823 5.1162108 39.634594 4.4072794 38.996094 4.1328125 L 36.923828 3.2421875 C 36.285432 2.9676905 35.543009 3.2149043 35.199219 3.8144531 L 34.544922 4.9414062 C 33.662032 4.8034121 32.766594 4.7892085 31.876953 4.8925781 L 31.238281 3.7167969 C 30.992341 3.2611214 30.514623 2.9974197 30.019531 3 z M 26.740234 7.0195312 C 26.09518 7.5275013 25.506541 8.0993226 25.007812 8.75 L 23.697266 8.359375 C 23.030619 8.1617855 22.324343 8.4890836 22.048828 9.125 L 21.158203 11.199219 C 21.010361 11.54034 21.023094 11.906892 21.150391 12.230469 C 21.154552 12.220193 21.153772 12.209442 21.158203 12.199219 L 22.048828 10.125 C 22.324343 9.4890831 23.030619 9.1617855 23.697266 9.359375 L 25.007812 9.75 C 25.564715 9.0234246 26.221646 8.3814141 26.958984 7.8339844 L 26.740234 7.0195312 z M 39.601562 7.2929688 L 39.365234 8.0761719 C 40.02431 8.6065997 40.610858 9.2148838 41.115234 9.8945312 L 42.443359 9.5390625 C 43.115105 9.359029 43.810582 9.7133681 44.068359 10.353516 L 44.902344 12.435547 C 45.022696 12.124628 45.035813 11.772641 44.90625 11.443359 L 44.068359 9.3535156 C 43.810582 8.7133682 43.115105 8.359029 42.443359 8.5390625 L 41.115234 8.8945312 C 40.674796 8.3010401 40.160774 7.7735156 39.601562 7.2929688 z M 22.935547 14.609375 C 22.92811 14.871539 22.936272 15.132608 22.949219 15.394531 C 22.961662 15.143812 22.963068 14.892325 22.994141 14.642578 L 22.935547 14.609375 z M 43.097656 14.783203 L 43.050781 14.808594 C 43.075471 15.022222 43.071983 15.23834 43.082031 15.453125 C 43.094588 15.22956 43.100432 15.006874 43.097656 14.783203 z M 22.9375 16.205078 L 21.720703 16.859375 C 21.110732 17.186002 20.841227 17.922666 21.09375 18.564453 L 21.097656 18.572266 C 21.211877 18.277189 21.423691 18.018419 21.720703 17.859375 L 22.998047 17.171875 C 22.957191 16.850744 22.947385 16.527958 22.9375 16.205078 z M 43.083984 16.410156 C 43.067455 16.729184 43.052797 17.048579 43.005859 17.365234 L 44.271484 18.087891 C 44.549694 18.246209 44.743263 18.492857 44.853516 18.771484 C 45.105731 18.143455 44.862583 17.424262 44.271484 17.087891 L 43.083984 16.410156 z M 26.453125 23.525391 L 26.244141 24.222656 C 26.156279 24.516668 26.185152 24.81499 26.285156 25.083984 L 26.689453 23.738281 C 26.606474 23.6716 26.533856 23.594409 26.453125 23.525391 z M 39.21875 23.814453 C 39.143381 23.873005 39.077129 23.941564 39 23.998047 L 39.337891 25.259766 C 39.42969 25.006537 39.465634 24.730798 39.390625 24.453125 L 39.21875 23.814453 z"/>
</svg>

<svg clip-rule="evenodd" fill-rule="evenodd" stroke-linejoin="round" stroke-miterlimit="2" viewBox="0 0 48 48" xmlns="http://www.w3.org/2000/svg">
 <linearGradient id="a" x2="1" gradientTransform="matrix(0 -24 24 0 16 44)" gradientUnits="userSpaceOnUse">
  <stop stop-color="#737373" offset="0"/>
  <stop stop-color="#a6a6a6" offset="1"/>
 </linearGradient>
 <path d="m6.658 34.633c.213.73.509 1.434.882 2.094l-1.064 1.343c-.348.438-.308 1.064.083 1.459l1.833 1.834c.395.395 1.02.43 1.459.082l1.334-1.055c.686.395 1.416.703 2.176.921l.2 1.716c.065.556.534.973 1.09.973h2.594c.556 0 1.025-.417 1.09-.973l.191-1.656c.817-.212 1.599-.53 2.333-.942l1.29 1.021c.439.347 1.064.308 1.459-.083l1.833-1.833c.396-.396.43-1.021.083-1.46l-1.003-1.273c.417-.721.742-1.49.96-2.294l1.546-.178c.556-.065.973-.535.973-1.091v-2.594c0-.556-.417-1.025-.973-1.09l-1.525-.178c-.208-.795-.521-1.556-.921-2.268l.939-1.186c.347-.439.308-1.065-.083-1.46l-1.829-1.829c-.395-.395-1.02-.43-1.459-.083l-1.151.913c-.747-.439-1.547-.774-2.385-1l-.174-1.49c-.065-.556-.534-.973-1.09-.973h-2.594c-.556 0-1.025.417-1.09.973l-.174 1.49c-.86.231-1.681.578-2.445 1.034l-1.195-.947c-.439-.347-1.064-.308-1.459.083l-1.833 1.833c-.396.396-.43 1.021-.083 1.46l.999 1.264c-.4.722-.704 1.491-.903 2.29l-1.599.183c-.556.065-.973.534-.973 1.09v2.594c0 .556.417 1.025.973 1.09z" fill="url(#a)" fill-rule="nonzero"/>
 <path d="m38.996 4.133-2.072-.89c-.639-.275-1.382-.028-1.725.572l-.653 1.126c-.883-.138-1.78-.152-2.67-.049l-.637-1.175c-.328-.607-1.067-.874-1.712-.623l-2.097.833c-.643.257-.998.951-.818 1.62l.346 1.286c-.737.547-1.394 1.19-1.951 1.917l-1.309-.391c-.666-.198-1.373.13-1.649.765l-.89 2.076c-.276.635-.028 1.375.574 1.718l1.262.724c-.105.841-.104 1.69.003 2.529l-1.278.688c-.61.327-.878 1.063-.625 1.705l.836 2.089c.257.641.954.994 1.626.814l1.487-.397c.48.618 1.032 1.175 1.646 1.668l-.446 1.485c-.199.664.13 1.368.768 1.643l2.073.89c.639.274 1.382.027 1.725-.573l.773-1.333c.808.116 1.626.136 2.436.051l.746 1.382c.328.607 1.067.874 1.711.623l2.098-.833c.643-.257.998-.951.817-1.62l-.391-1.455c.702-.514 1.331-1.114 1.876-1.786l1.428.424c.667.198 1.373-.13 1.649-.766l.893-2.064c.276-.636.028-1.376-.574-1.719l-1.267-.723c.126-.847.144-1.707.046-2.555l1.229-.662c.61-.326.878-1.062.625-1.704l-.836-2.09c-.257-.64-.954-.994-1.626-.814l-1.328.356c-.504-.68-1.09-1.289-1.749-1.82l.39-1.291c.209-.667-.121-1.377-.76-1.651z" fill="#fa0" fill-rule="nonzero"/>
 <g fill="#fff">
  <circle cx="16" cy="32" r="4"/>
  <circle cx="33" cy="15" r="4"/>
 </g>
</svg>
